img/icons/facebook-icon.svg

<svg width="25" height="25" viewBox="0 0 25 25" fill="none" xmlns="http://www.w3.org/2000/svg">
<path d="M21.875 0H3.125C1.40156 0 0 1.40156 0 3.125V21.875C0 23.5984 1.40156 25 3.125 25H12.5V16.4062H9.375V12.5H12.5V9.375C12.5 6.78594 14.5984 4.6875 17.1875 4.6875H20.3125V8.59375H18.75C17.8875 8.59375 17.1875 8.5125 17.1875 9.375V12.5H21.0938L19.5312 16.4062H17.1875V25H21.875C23.5984 25 25 23.5984 25 21.875V3.125C25 1.40156 23.5984 0 21.875 0Z" fill="white"/>
</svg>

<svg width="25" height="25" fill="none" xmlns="http://www.w3.org/2000/svg"><path d="M21.875 0H3.125A3.128 3.128 0 000 3.125v18.75A3.128 3.128 0 003.125 25H12.5v-8.594H9.375V12.5H12.5V9.375a4.687 4.687 0 014.688-4.688h3.125v3.907H18.75c-.863 0-1.563-.082-1.563.781V12.5h3.907l-1.563 3.906h-2.343V25h4.687A3.128 3.128 0 0025 21.875V3.125A3.128 3.128 0 0021.875 0z" fill="#fff"/></svg>
